X: 407
T:Nimphes, nappes
N: Derived from Jos3006-Nimphes_nappes__Circumdederunt_me.krn
C: Josquin des Prez
%%abc-version 2.0
%%abcx-abcm2ps-target-version 5.9.1 (29 Sep 2008)
%%abc-creator hum2abc beta
%%abcx-conversion-date 2019/02/12 16:15:55
%%abc-edited-by Jesse Rodin
%%abc-edited-by Will Watson 19/08/2011
%%abcx-initial-encoding-date 2011/08/19/
%%humdrum-veritas 88763517
%%humdrum-veritas-data 3478239425
%%linebreak <none>
%%barnumbers 0
L: 1/4
M: 2/1
Q: 1/2=120
V: 1 clef=treble
V: 2 clef=treble-8
V: 3 clef=treble-8
V: 4 clef=treble-8
V: 5 clef=treble-8
V: 6 clef=bass
K: F
[V:1] F8 | 
[V:2] z8 | 
[V:3] z8 | 
[V:4] z8 | 
[V:5] F8 | 
[V:6] z8 | 
[V:1] D4D4 | 
[V:2] z8 | 
[V:3] B8 | 
[V:4] z8 | 
[V:5] G4G4 | 
[V:6] z8 | 
[V:1] E6C2 | 
[V:2] z8 | 
[V:3] G4G4 | 
[V:4] z8 | 
[V:5] E3CC4 | 
[V:6] C,8 | 
[V:1] C8 | 
[V:2] z8 | 
[V:3] A6F2 | 
[V:4] z8 | 
[V:5] z4F4 | 
[V:6] A,,4A,,4 | 
[V:1] z4D4 | 
[V:2] z8 | 
[V:3] F8 | 
[V:4] z8 | 
[V:5] F4D4 | 
[V:6] B,,8 | 
[V:1] D4D4 | 
[V:2] z8 | 
[V:3] z4G4 | 
[V:4] z8 | 
[V:5] G4G4 | 
[V:6] G,,8 | 
[V:1] E4E4 | 
[V:2] z8 | 
[V:3] G4G4 | 
[V:4] z8 | 
[V:5] E3CC4 | 
[V:6] C,8 | 
[V:1] C6A,2 | 
[V:2] z8 | 
[V:3] A4A4 | 
[V:4] z8 | 
[V:5] z8 | 
[V:6] A,,4A,,4 | 
[V:1] A,8 | 
[V:2] z8 | 
[V:3] F6D2 | 
[V:4] z8 | 
[V:5] z4F4 | 
[V:6] D,4D,4 | 
[V:1] D8 | 
[V:2] z8 | 
[V:3] D8 | 
[V:4] z8 | 
[V:5] F4D4 | 
[V:6] B,,6G,,2 | 
[V:1] D4D4 | 
[V:2] z8 | 
[V:3] z4G4 | 
[V:4] z8 | 
[V:5] G4G4 | 
[V:6] G,,8 | 
[V:1] G8 | 
[V:2] z8 | 
[V:3] G4G4 | 
[V:4] z8 | 
[V:5] E6C2 | 
[V:6] z8 | 
[V:1] E8 | 
[V:2] z8 | 
[V:3] c8 | 
[V:4] z8 | 
[V:5] C8 | 
[V:6] z4C,4 | 
[V:1] E4E4 | 
[V:2] z8 | 
[V:3] z4c4 | 
[V:4] z8 | 
[V:5] c4c4 | 
[V:6] C,4C,4 | 
[V:1] A8 | 
[V:2] z8 | 
[V:3] c4c4 | 
[V:4] z8 | 
[V:5] A3FF4 | 
[V:6] F,8 | 
[V:1] z4A4 | 
[V:2] z8 | 
[V:3] f8 | 
[V:4] z8 | 
[V:5] z2F2A2F2 | 
[V:6] z4F,4 | 
[V:1] A4A4 | 
[V:2] z8 | 
[V:3] z4F4 | 
[V:4] F8 | 
[V:5] A3Bc4 | 
[V:6] F,4F,2F,2- | 
[V:1] F4F4 | 
[V:2] z8 | 
[V:3] A3FA3B | 
[V:4] F4F4 | 
[V:5] z8 | 
[V:6] F,E,D,C,D,2D,2 | 
[V:1] E8 | 
[V:2] z8 | 
[V:3] c8 | 
[V:4] G8 | 
[V:5] z4G4 | 
[V:6] C,8 | 
[V:1] z8 | 
[V:2] c8 | 
[V:3] z4A4 | 
[V:4] F8 | 
[V:5] A2A2F2F2 | 
[V:6] z4F,,4 | 
[V:1] z8 | 
[V:2] c4c4 | 
[V:3] G2E2G4- | 
[V:4] G8- | 
[V:5] E8 | 
[V:6] C,4C,4 | 
[V:1] z8 | 
[V:2] d8 | 
[V:3] G2F2D4 | 
[V:4] G8 | 
[V:5] z8 | 
[V:6] B,,4B,,4 | 
[V:1] z4E4 | 
[V:2] c8 | 
[V:3] E8 | 
[V:4] A8- | 
[V:5] z8 | 
[V:6] A,,4A,,4 | 
[V:1] F4F2F2- | 
[V:2] d8- | 
[V:3] z4D4 | 
[V:4] A8 | 
[V:5] z4F4 | 
[V:6] D,6D,2 | 
[V:1] FEDCD2D2 | 
[V:2] d8 | 
[V:3] A6A2 | 
[V:4] z8 | 
[V:5] F2F2F2F2 | 
[V:6] D,4D,4 | 
[V:1] C8- | 
[V:2] e8- | 
[V:3] A4A4 | 
[V:4] A8- | 
[V:5] E8 | 
[V:6] A,,8- | 
[V:1] C8 | 
[V:2] e8 | 
[V:3] E8 | 
[V:4] A4A4 | 
[V:5] z8 | 
[V:6] A,,8 | 
[V:1] z8 | 
[V:2] z8 | 
[V:3] z4G4 | 
[V:4] B8 | 
[V:5] G4G4 | 
[V:6] z4G,,4 | 
[V:1] G8 | 
[V:2] e8- | 
[V:3] G4E3C | 
[V:4] G8- | 
[V:5] E3CC4 | 
[V:6] C,8 | 
[V:1] G4G4 | 
[V:2] e4e4 | 
[V:3] C4z4 | 
[V:4] G8 | 
[V:5] z2c2c4 | 
[V:6] C,8 | 
[V:1] A4A4 | 
[V:2] f8 | 
[V:3] C4F4 | 
[V:4] F8- | 
[V:5] A3FF4 | 
[V:6] F,,4F,,4 | 
[V:1] F4F4 | 
[V:2] d8- | 
[V:3] F4D4- | 
[V:4] F8- | 
[V:5] F4B4- | 
[V:6] B,,6B,,2 | 
[V:1] F6G2 | 
[V:2] d8 | 
[V:3] D2B,2D3E | 
[V:4] F8 | 
[V:5] B2B2B2B2 | 
[V:6] B,,4B,,4 | 
[V:1] A8 | 
[V:2] c8- | 
[V:3] F8 | 
[V:4] z8 | 
[V:5] A8 | 
[V:6] F,,8 | 
[V:1] z4A4 | 
[V:2] c8- | 
[V:3] z4F4 | 
[V:4] z8 | 
[V:5] z4f4 | 
[V:6] F,8 | 
[V:1] A4A4 | 
[V:2] c8 | 
[V:3] A4A3B | 
[V:4] z8 | 
[V:5] f4f4 | 
[V:6] F,4F,4 | 
[V:1] G8 | 
[V:2] z8 | 
[V:3] c8- | 
[V:4] z8 | 
[V:5] e8- | 
[V:6] C,8 | 
[V:1] G4c4- | 
[V:2] z8 | 
[V:3] c8 | 
[V:4] z8 | 
[V:5] e8 | 
[V:6] z4C,4 | 
[V:1] c2B2A2G2 | 
[V:2] z8 | 
[V:3] z4F4 | 
[V:4] z8 | 
[V:5] z8 | 
[V:6] F,6E,2 | 
[V:1] F2E2D4 | 
[V:2] z8 | 
[V:3] F4G4 | 
[V:4] z8 | 
[V:5] z8 | 
[V:6] D,2C,2B,,4 | 
[V:1] C8 | 
[V:2] z8 | 
[V:3] A8 | 
[V:4] z8 | 
[V:5] z4c4 | 
[V:6] A,,2F,,2F,4- | 
[V:1] z8 | 
[V:2] z8 | 
[V:3] z4F4 | 
[V:4] z8 | 
[V:5] f6e2 | 
[V:6] F,2E,2D,2C,2 | 
[V:1] z4G4 | 
[V:2] z8 | 
[V:3] F4G4 | 
[V:4] z8 | 
[V:5] d2c2B4 | 
[V:6] B,,2A,,2G,,4 | 
[V:1] c6B2 | 
[V:2] z8 | 
[V:3] A3Bc2d2- | 
[V:4] F8 | 
[V:5] A8 | 
[V:6] F,,8 | 
[V:1] A3GF4 | 
[V:2] z8 | 
[V:3] dcc4=B2 | 
[V:4] F4D4 | 
[V:5] F4F4 | 
[V:6] z8 | 
[V:1] E4C4 | 
[V:2] z8 | 
[V:3] c8 | 
[V:4] C4F4- | 
[V:5] G4A4- | 
[V:6] z8 | 
[V:1] c6B2 | 
[V:2] c8 | 
[V:3] z8 | 
[V:4] F4F4 | 
[V:5] A2F2A3B | 
[V:6] z4F,4 | 
[V:1] A3GF4 | 
[V:2] c4A4 | 
[V:3] z4c4 | 
[V:4] z8 | 
[V:5] c8 | 
[V:6] F,4F,4 | 
[V:1] E4z2G2 | 
[V:2] G4c4- | 
[V:3] c4c4 | 
[V:4] z4_E4 | 
[V:5] z4C4 | 
[V:6] C,8 | 
[V:1] A4A4 | 
[V:2] c4c4 | 
[V:3] A4A4 | 
[V:4] F4F4 | 
[V:5] F3GA4 | 
[V:6] z4F,,4 | 
[V:1] F4F4 | 
[V:2] z8 | 
[V:3] d4d4 | 
[V:4] F8 | 
[V:5] D4z2D2 | 
[V:6] B,,4B,,4 | 
[V:1] B4B4 | 
[V:2] z4B4 | 
[V:3] G4G2g2- | 
[V:4] G8- | 
[V:5] G4G4 | 
[V:6] G,,4G,,4 | 
[V:1] G4G4 | 
[V:2] c4c4 | 
[V:3] gfede3d | 
[V:4] G8 | 
[V:5] C4C4 | 
[V:6] C,8 | 
[V:1] A6F2 | 
[V:2] c8 | 
[V:3] f8 | 
[V:4] F8- | 
[V:5] F6D2 | 
[V:6] F,,4z2F,,2 | 
[V:1] F4z2F2 | 
[V:2] d8- | 
[V:3] z2F2B4 | 
[V:4] F8 | 
[V:5] D4z2D2 | 
[V:6] B,,4B,,4 | 
[V:1] B4B4 | 
[V:2] d8 | 
[V:3] B4G4 | 
[V:4] z8 | 
[V:5] G4G4 | 
[V:6] G,,4z2G,,2 | 
[V:1] G4G4 | 
[V:2] c8- | 
[V:3] z2G2c4 | 
[V:4] z4_E4 | 
[V:5] E4C4 | 
[V:6] C,4C,4 | 
[V:1] A6F2 | 
[V:2] c8 | 
[V:3] c4F4 | 
[V:4] F4F4 | 
[V:5] F3GA4 | 
[V:6] F,,4F,,4 | 
[V:1] F4z2F2 | 
[V:2] z8 | 
[V:3] F4B4- | 
[V:4] F8 | 
[V:5] D4z4 | 
[V:6] B,,8 | 
[V:1] B4B4 | 
[V:2] z4B4 | 
[V:3] B2G2G2g2- | 
[V:4] G8- | 
[V:5] D4G4 | 
[V:6] G,,4z2G,,2 | 
[V:1] G4G4 | 
[V:2] c4c4 | 
[V:3] gfede3d | 
[V:4] G8 | 
[V:5] G4C4 | 
[V:6] C,4C,4 | 
[V:1] A6F2 | 
[V:2] c8 | 
[V:3] f8 | 
[V:4] F8- | 
[V:5] C4F4- | 
[V:6] F,,4F,,4 | 
[V:1] F8- | 
[V:2] d8- | 
[V:3] z2f2f3e | 
[V:4] F8- | 
[V:5] F2D2D4 | 
[V:6] B,,8- | 
[V:1] F8- | 
[V:2] d8 | 
[V:3] d3cB4 | 
[V:4] F8- | 
[V:5] z2D2D2D2 | 
[V:6] B,,8 | 
[V:1] F8- | 
[V:2] c8- | 
[V:3] A8- | 
[V:4] F8- | 
[V:5] F2C2F3E | 
[V:6] F,,8- | 
[V:1] F8 |]  
[V:2] c8 |]  
[V:3] A8 |]  
[V:4] F8 |]  
[V:5] C8 |]  
[V:6] F,,8 |]  



